T: Andy Davy's
M: 4/4
L: 1/8
K: Ador
|:Em|C|C|G|Em|Am|C|D:||:Em|C|C|G|Am|Am|C|D:||:Am|C|C|G|Am|C|Em|D:||:Am|C|C|G|Am|C|Em|D:||:Em|C|C|G|Em|C|Am|D:||:C|D|Em|Em|C|C|Am|D:||:C|G|G|Am|C|G|Am|D:||:C|D|Em|Em|C|C|Am|D:|
